assets/icon/mDamage.svg

<svg viewBox="0 0 50 50" xmlns="http://www.w3.org/2000/svg"><path d="m0 0h22.4 27.6" fill="#5400e7"/><path d="m50 50h-30-20" fill="#5400e7"/><path d="m25 19.73-5.23 5.24 5.23 5.22v-.02l5.22-5.2z"/><path d="m40.8 31.6 6.6-6.55-6.6-6.6v-9.27h-9.2l-6.6-6.54-6.55 6.54h-9v9l-6.81 6.82 6.83 6.84v8.65h8.64l6.89 6.87 6.84-6.83h9zm-15.8 9.2-15.81-15.8 15.81-15.82 15.8 15.82-15.8 15.78z"/></svg>

<svg id="Layer_1" data-name="Layer 1" xmlns="http://www.w3.org/2000/svg" viewBox="0 0 50 50"><g id="Layer_1-2" data-name="Layer 1-2"><g id="b5e31b63-280e-4f38-96cb-4ce3912872af"><g id="a7f2af64-ea2b-4d32-adbc-dcaa5fbad56d"><polyline points="0 0 22.4 0 50 0" fill="#5400e7"/><polyline points="50 50 20 50 0 50" fill="#5400e7"/></g></g></g><polygon points="25 19.73 19.77 24.97 25 30.19 25 30.17 30.22 24.97 25 19.73"/><path d="M40.8,31.6l6.6-6.55-6.6-6.6V9.18H31.6L25,2.64,18.45,9.18h-9v9L2.64,25h0l6.83,6.84v8.65h8.64L25,47.36h0l6.84-6.83h9ZM25,40.8h0L9.19,25h0L25,9.18,40.8,25,25,40.78Z"/></svg>
